X: 4348
T: PRETTY MAIDENS. (Don Giovanni.)
R: air, waltz, jig
%R: air, waltz, jig
B: James Kerr "Merry Melodies" v.4 p.37 #348
Z: 2016 John Chambers <jc:trillian.mit.edu>
M: 6/8
L: 1/8
K: G
!f!Bc |\
dBc dBc | dBc def | (gd)B zBd | ccc BBB |\
Az A BAB | Az A BAB | A2z zBc | dBc dBc |\
dBc def |
(gd)B zdB | AAA AB^c | d3- dB^c |\
d3- dB^c | ddd eee | fff ede | d2e A>B^c |\
d2e A>B^c | d2z zBd |
cBc cBc | (cd) e2 cA | BdB AcA | G3- GEF |\
G3- GEF | G2A D>EF | G>AB c>BA | G2A D>EF |\
G>AB c>BA | G2z b2z | g3- g |]

%%sep 1 1 500
%%sep 1 1 500

